src/components/icon/assets/duplicate.svg

<?xml version="1.0" encoding="UTF-8"?>
<svg width="24px" height="24px" viewBox="0 0 24 24" version="1.1" xmlns="http://www.w3.org/2000/svg" xmlns:xlink="http://www.w3.org/1999/xlink">
    <!-- Generator: Sketch 60 (88103) - https://sketch.com -->
    <title>Duplicate</title>
    <desc>Created with Sketch.</desc>
    <g id="Duplicate" stroke="none" stroke-width="1" fill="none" fill-rule="evenodd">
        <path d="M14.7407407,3.25 C16.1424548,3.25 17.2808642,4.38055834 17.2808642,5.77777778 L17.2808642,5.77777778 L17.28,6.671 C18.8621911,6.76300579 20.1111111,8.06898578 20.1111111,9.66666667 L20.1111111,17 C20.1111111,18.6568542 18.7679654,20 17.1111111,20 L9.68518519,20 C8.09366107,20 6.79159399,18.7606871 6.69138681,17.1944641 L5.79012346,17.1944444 C4.38840944,17.1944444 3.25,16.0638861 3.25,14.6666667 L3.25,14.6666667 L3.25,5.77777778 C3.25,4.38055834 4.38840944,3.25 5.79012346,3.25 L5.79012346,3.25 Z M17.1111111,8.16666667 L9.68518519,8.16666667 C8.85675806,8.16666667 8.18518519,8.83823954 8.18518519,9.66666667 L8.18518519,17 C8.18518519,17.8284271 8.85675806,18.5 9.68518519,18.5 L17.1111111,18.5 C17.9395382,18.5 18.6111111,17.8284271 18.6111111,17 L18.6111111,9.66666667 C18.6111111,8.83823954 17.9395382,8.16666667 17.1111111,8.16666667 Z M14.2932099,10.2222222 L14.293,12.666 L16.7546296,12.6666667 L16.7546296,14 L14.293,13.999 L14.2932099,16.4444444 L12.9506173,16.4444444 L12.95,13.999 L10.4891975,14 L10.4891975,12.6666667 L12.95,12.666 L12.9506173,10.2222222 L14.2932099,10.2222222 Z M5.79012346,4.75 C5.2145217,4.75 4.75,5.21131811 4.75,5.77777778 L4.75,5.77777778 L4.75,14.6666667 C4.75,15.2331263 5.2145217,15.6944444 5.79012346,15.6944444 L5.79012346,15.6944444 L6.685,15.694 L6.68518519,9.66666667 C6.68518519,8.00981242 8.02833094,6.66666667 9.68518519,6.66666667 L15.78,6.666 L15.7808642,5.77777778 C15.7808642,5.24908208 15.3762142,4.81197638 14.8542753,4.75604537 L14.7407407,4.75 Z" id="Combined-Shape" fill="#000000"></path>
    </g>
</svg>

<svg xmlns="http://www.w3.org/2000/svg" viewBox="0 0 24 24"><path d="M14.74 3.25c1.402 0 2.54 1.13 2.54 2.528v.893a3.002 3.002 0 012.831 2.996V17a3 3 0 01-3 3H9.685a3 3 0 01-2.994-2.806h-.9a2.534 2.534 0 01-2.541-2.527v-8.89A2.534 2.534 0 015.79 3.25zm2.371 4.917H9.685a1.5 1.5 0 00-1.5 1.5V17a1.5 1.5 0 001.5 1.5h7.426a1.5 1.5 0 001.5-1.5V9.667a1.5 1.5 0 00-1.5-1.5zm-2.818 2.055v2.444h2.462V14l-2.462-.001v2.445h-1.342L12.95 14h-2.46v-1.333l2.46-.001v-2.444h1.343zM5.79 4.75c-.575 0-1.04.461-1.04 1.028v8.889c0 .566.465 1.027 1.04 1.027h.895V9.667a3 3 0 013-3l6.095-.001v-.888c0-.529-.404-.966-.926-1.022l-.113-.006z" fill-rule="evenodd"/></svg>
